src/assets/images/svg/social/logo-whatsapp.svg

<svg width="40" height="40" viewBox="0 0 40 40" fill="none" xmlns="http://www.w3.org/2000/svg">
<path fill-rule="evenodd" clip-rule="evenodd" d="M32.4008 7.58587C30.7829 5.96717 28.8608 4.68447 26.7451 3.81161C24.6295 2.93875 22.3621 2.49297 20.0734 2.49993C10.4688 2.49993 2.65 10.2796 2.64609 19.8437C2.64184 22.8891 3.44461 25.8812 4.97266 28.5156L2.5 37.4999L11.7383 35.0882C14.2955 36.4736 17.1581 37.1986 20.0664 37.1976H20.0734C29.6773 37.1976 37.4953 29.4171 37.5 19.8538C37.5058 17.573 37.058 15.3138 36.1826 13.2077C35.3071 11.1016 34.0216 9.19055 32.4008 7.58587ZM20.0734 34.2702H20.0672C17.4745 34.271 14.929 33.5772 12.6953 32.2609L12.1664 31.9484L6.68437 33.3796L8.14766 28.0601L7.80312 27.5132C6.35343 25.218 5.58535 22.5584 5.58828 19.8437C5.58828 11.896 12.0891 5.42962 20.0789 5.42962C23.9117 5.42277 27.5903 6.93863 30.3055 9.64377C33.0208 12.3489 34.5504 16.0218 34.5578 19.8546C34.5547 27.8031 28.057 34.2702 20.0734 34.2702ZM28.018 23.4741C27.5828 23.257 25.4398 22.2085 25.043 22.064C24.6461 21.9195 24.3531 21.8468 24.0633 22.2812C23.7734 22.7156 22.9383 23.6874 22.6844 23.9804C22.4305 24.2734 22.1766 24.3054 21.7414 24.0882C21.3063 23.871 19.9023 23.414 18.2391 21.9374C16.9445 20.7882 16.0711 19.3695 15.8172 18.9359C15.5633 18.5023 15.7898 18.2671 16.0078 18.0515C16.2039 17.857 16.443 17.5452 16.6609 17.2921C16.8789 17.039 16.9516 16.8577 17.0961 16.5687C17.2406 16.2796 17.1687 16.0265 17.0602 15.8101C16.9516 15.5937 16.0805 13.4601 15.718 12.5921C15.3641 11.7468 15.0055 11.8616 14.7383 11.8484C14.4844 11.8359 14.1914 11.8327 13.9031 11.8327C13.6827 11.8385 13.4659 11.8896 13.2662 11.9829C13.0664 12.0762 12.888 12.2096 12.7422 12.3749C12.343 12.8093 11.218 13.8593 11.218 15.9906C11.218 18.1218 12.7805 20.1843 12.9961 20.4734C13.2117 20.7624 16.0664 25.1398 20.4344 27.0171C21.2455 27.3645 22.0742 27.6691 22.9172 27.9296C23.9602 28.2593 24.9094 28.2132 25.6594 28.1015C26.4961 27.9773 28.2375 27.0531 28.5992 26.0406C28.9609 25.0281 28.9617 24.1609 28.8531 23.9804C28.7445 23.7999 28.4539 23.6906 28.018 23.4741Z" fill="url(#paint0_linear_93_602)"/>
<defs>
<linearGradient id="paint0_linear_93_602" x1="3" y1="20" x2="22" y2="20" gradientUnits="userSpaceOnUse">
<stop stop-color="#009DF8"/>
<stop offset="1" stop-color="#708AF4"/>
</linearGradient>
</defs>
</svg>

<svg xmlns="http://www.w3.org/2000/svg" width="40" height="40" fill="none"><path fill="url(#a)" fill-rule="evenodd" d="M32.4 7.586A17.354 17.354 0 0 0 20.074 2.5C10.47 2.5 2.65 10.28 2.646 19.844a17.236 17.236 0 0 0 2.327 8.672L2.5 37.5l9.238-2.412a17.47 17.47 0 0 0 8.328 2.11h.007c9.604 0 17.422-7.78 17.427-17.344a17.202 17.202 0 0 0-5.1-12.268ZM20.074 34.27h-.006c-2.593.001-5.138-.693-7.372-2.01l-.529-.312-5.482 1.432 1.464-5.32-.345-.547a14.333 14.333 0 0 1-2.215-7.67c0-7.947 6.501-14.413 14.49-14.413a14.453 14.453 0 0 1 14.48 14.425c-.003 7.948-6.501 14.415-14.485 14.415Zm7.945-10.796c-.435-.217-2.578-1.265-2.975-1.41-.397-.145-.69-.217-.98.217-.29.435-1.125 1.406-1.379 1.7-.254.292-.507.324-.943.107-.435-.217-1.839-.674-3.502-2.15-1.294-1.15-2.168-2.569-2.422-3.002-.254-.434-.027-.669.19-.884.197-.195.436-.507.654-.76.218-.253.29-.434.435-.723.145-.29.073-.543-.036-.759-.108-.216-.98-2.35-1.342-3.218-.354-.845-.713-.73-.98-.744a17.682 17.682 0 0 0-.835-.015 1.604 1.604 0 0 0-1.16.542c-.4.434-1.525 1.484-1.525 3.616 0 2.13 1.563 4.193 1.778 4.482.216.29 3.07 4.667 7.438 6.544.811.348 1.64.652 2.483.913 1.043.33 1.992.283 2.742.172.837-.125 2.579-1.049 2.94-2.061.362-1.013.363-1.88.254-2.06-.109-.181-.4-.29-.835-.507Z" clip-rule="evenodd"/><defs><linearGradient id="a" x1="3" x2="22" y1="20" y2="20" gradientUnits="userSpaceOnUse"><stop stop-color="#009DF8"/><stop offset="1" stop-color="#708AF4"/></linearGradient></defs></svg>
